X: 381
M: C
L: 1/8
K: Am
E<AA>G E<AA>B | G<AB>c d/c/B/A/ GB | E<AA>G EAAa | g>d e/d/c/B/ {B}A2A :|
e |\
a>bc'a eac'a | (b/a/).g.e d>e gdbg | a>bc'b eac'a | c'/b/a/g/ e^g a/a/aa2 |
a>bc'a b>^gae | =g>deg B>GdB | E<AA>G EAAa | g>d e/d/c/B/ {B}A2A |]


